X:731
T:The Tatler
C:Feuillet / John Essex, 1710
L:1/8
M:6/8
Q:3/8=112
S:For the further improvement of dancing
K:F
P:A
|: "Dm"f2d "C"a2e | "Bb"fgf "Gm"e2d | "A"^c2A "A7"A2e | "Dm"fgf "Gm"gag | "F"aba "C"g2c |
"Dm"fgf "Gm"gag | "F"aba "C"gag | "Dm"aba "C"g3/f/e | "F"fcf "/"f3 :|
P:B
|: "Dm"A2F "C"c2G | "F"ABA "C"GcG | "Dm"AGF "C"GcG | "F"ABA "C"GcB | "Dm"AGF "C7"GAE | "F"F2F "/"F3 |
"Dm"f2d "C"a2e | "Bb"fed "A"^ceA | "Dm"fed "C"eae | "Bb"fed "A"^ceA | "Dm"fgf "A7"eA^c | "Dm"d2d "/"d3 :|

